images/section-services/icon3.svg

<svg width="87" height="87" viewBox="0 0 87 87" fill="none" xmlns="http://www.w3.org/2000/svg">
<g clip-path="url(#clip0_2282_16139)">
<path d="M12.5141 59.7497C12.5127 59.9402 12.5618 60.1276 12.6563 60.293C12.7511 60.459 12.8884 60.5968 13.0539 60.6924L13.0539 60.6925L13.0619 60.6969L41.2689 76.136L41.8609 76.46V75.7851V45.0836V44.8466L41.6531 44.7328L13.1062 29.1L12.5141 28.7757V29.4508V59.7497ZM12.5141 59.7497C12.5141 59.749 12.5141 59.7484 12.5141 59.7477L12.9141 59.7513M12.5141 59.7497V59.7513H12.9141M12.9141 59.7513V29.9069L41.653 75.4342L41.4609 75.7851H41.0609V75.5662L13.2539 60.346C13.1497 60.2858 13.0633 60.1991 13.0036 60.0946C12.9439 59.9901 12.913 59.8716 12.9141 59.7513ZM75.4979 23.4296L75.498 23.4296C76.1834 23.8047 76.7554 24.3571 77.154 25.029C77.5527 25.7009 77.7634 26.4677 77.7641 27.249V59.7509C77.7634 60.5322 77.5527 61.299 77.154 61.9709C76.7554 62.6428 76.1834 63.1952 75.498 63.5702L75.4979 63.5703L45.5917 79.944L45.5906 79.9445C44.9504 80.2975 44.2311 80.4826 43.5 80.4826C42.7689 80.4826 42.0496 80.2975 41.4094 79.9445L41.4083 79.944L11.5021 63.5703L11.502 63.5702C10.8166 63.1952 10.2446 62.6428 9.84595 61.9709C9.44731 61.299 9.23662 60.5323 9.23594 59.7511V27.2488C9.23662 26.4675 9.44731 25.7009 9.84595 25.029C10.2446 24.3571 10.8166 23.8047 11.502 23.4296L11.5021 23.4296L41.4083 7.05592L41.4096 7.05521C42.0497 6.70174 42.7689 6.51633 43.5 6.51633C44.2311 6.51633 44.9503 6.70174 45.5904 7.05521L45.5917 7.05592L75.4979 23.4296ZM42.9682 9.92931L42.9679 9.92945L31.77 16.067L31.1296 16.418L31.7703 16.7687L60.4939 32.4899L60.6859 32.5949L60.8779 32.4899L72.4122 26.179L73.0534 25.8281L72.4122 25.4772L44.0047 9.92934L44.0047 9.92931C43.8458 9.84237 43.6675 9.7968 43.4864 9.7968C43.3053 9.7968 43.1271 9.84237 42.9682 9.92931ZM14.5877 25.4772L13.9468 25.8282L14.5878 26.179L43.308 41.8934L43.5 41.9984L43.692 41.8934L56.6299 34.8144L57.271 34.4636L56.6299 34.1126L42.2698 26.252L27.9097 18.3915L27.7176 18.2863L27.5255 18.3915L14.5877 25.4772ZM73.9381 60.6969L73.9382 60.697L74.0859 59.7513H74.4859V59.7496V29.4508V28.7758L73.8938 29.0999L61.6595 35.7983L61.4516 35.9121V36.1491V51.6562C61.4516 52.0909 61.2789 52.5078 60.9715 52.8152C60.6641 53.1226 60.2472 53.2953 59.8125 53.2953C59.3778 53.2953 58.9609 53.1226 58.6535 52.8152C58.3461 52.5078 58.1734 52.0909 58.1734 51.6562V38.3785V37.7035L57.5813 38.0276L45.347 44.726L45.1391 44.8398V45.0768V75.7851V76.46L45.7311 76.136L73.9381 60.6969Z" fill="#004996" stroke="white" stroke-width="0.8"/>
<path d="M33.322 48.5374L25.1259 44.1575C24.9343 44.0542 24.7189 44 24.5 44C24.2811 44 24.0657 44.0542 23.8741 44.1575L15.678 48.5374C15.473 48.647 15.3018 48.8083 15.1825 49.0045C15.0632 49.2008 15.0002 49.4247 15 49.6529V58.3474C15.0002 58.5755 15.0632 58.7995 15.1825 58.9957C15.3018 59.192 15.473 59.3533 15.678 59.4628L23.8741 63.8428C24.0658 63.9459 24.2811 64 24.5 64C24.7189 64 24.9342 63.9459 25.1259 63.8428L33.322 59.4628C33.527 59.3533 33.6982 59.192 33.8175 58.9957C33.9368 58.7995 33.9998 58.5755 34 58.3474V49.6529C33.9998 49.4247 33.9368 49.2008 33.8175 49.0045C33.6982 48.8083 33.527 48.647 33.322 48.5374ZM24.4069 45.1138C24.4343 45.0992 24.465 45.0915 24.4963 45.0915C24.5275 45.0915 24.5583 45.0992 24.5857 45.1138L32.371 49.2729L29.21 50.9611L21.338 46.7556L24.4069 45.1138ZM23.9412 62.6364L16.2108 58.5065C16.1822 58.4904 16.1585 58.4671 16.1422 58.4392C16.1258 58.4112 16.1174 58.3796 16.1176 58.3474V50.242L23.9412 54.4238V62.6364ZM16.629 49.2729L20.1747 47.3775L24.1102 49.4802L28.0457 51.5829L24.5 53.4765L16.629 49.2729ZM32.8824 58.3474C32.8826 58.3796 32.8742 58.4112 32.8578 58.4392C32.8415 58.4671 32.8178 58.4904 32.7892 58.5065L25.0588 62.6364V54.4219L28.4118 52.6301V56.1819C28.4118 56.3266 28.4706 56.4653 28.5754 56.5676C28.6802 56.6699 28.8224 56.7274 28.9706 56.7274C29.1188 56.7274 29.2609 56.6699 29.3657 56.5676C29.4705 56.4653 29.5294 56.3266 29.5294 56.1819V52.0338L32.8824 50.242V58.3474Z" fill="#004996"/>
<path d="M49.5 74.5V77.9531H36.4062V74.5H49.5ZM44.75 68.1562V84.7188H41.2344V68.1562H44.75Z" fill="#E10000"/>
<path d="M49.5 74.5H52.5V71.5H49.5V74.5ZM49.5 77.9531V80.9531H52.5V77.9531H49.5ZM36.4062 77.9531H33.4062V80.9531H36.4062V77.9531ZM36.4062 74.5V71.5H33.4062V74.5H36.4062ZM44.75 68.1562H47.75V65.1562H44.75V68.1562ZM44.75 84.7188V87.7188H47.75V84.7188H44.75ZM41.2344 84.7188H38.2344V87.7188H41.2344V84.7188ZM41.2344 68.1562V65.1562H38.2344V68.1562H41.2344ZM46.5 74.5V77.9531H52.5V74.5H46.5ZM49.5 74.9531H36.4062V80.9531H49.5V74.9531ZM39.4062 77.9531V74.5H33.4062V77.9531H39.4062ZM36.4062 77.5H49.5V71.5H36.4062V77.5ZM41.75 68.1562V84.7188H47.75V68.1562H41.75ZM44.75 81.7188H41.2344V87.7188H44.75V81.7188ZM44.2344 84.7188V68.1562H38.2344V84.7188H44.2344ZM41.2344 71.1562H44.75V65.1562H41.2344V71.1562Z" fill="white"/>
</g>
<defs>
<clipPath id="clip0_2282_16139">
<rect width="87" height="87" fill="white"/>
</clipPath>
</defs>
</svg>

<?xml version="1.0" encoding="utf-8"?>
<!-- Generator: Adobe Illustrator 25.2.3, SVG Export Plug-In . SVG Version: 6.00 Build 0)  -->
<svg version="1.1" id="Слой_1" xmlns="http://www.w3.org/2000/svg" xmlns:xlink="http://www.w3.org/1999/xlink" x="0px" y="0px"
	 viewBox="0 0 87 87" style="enable-background:new 0 0 87 87;" xml:space="preserve">
<style type="text/css">
	.st0{clip-path:url(#SVGID_2_);}
	.st1{fill:#004996;stroke:#FFFFFF;stroke-width:0.8;}
	.st2{fill:#004996;}
	.st3{fill:#E10000;}
	.st4{fill:#FFFFFF;}
</style>
<g>
	<defs>
		<rect id="SVGID_1_" width="87" height="87"/>
	</defs>
	<clipPath id="SVGID_2_">
		<use xlink:href="#SVGID_1_"  style="overflow:visible;"/>
	</clipPath>
	<g class="st0">
		<path class="st1" d="M12.5,59.7c0,0.2,0,0.4,0.1,0.5c0.1,0.2,0.2,0.3,0.4,0.4v0l0,0l28.2,15.4l0.6,0.3v-0.7V45.1v-0.2l-0.2-0.1
			L13.1,29.1l-0.6-0.3v0.7V59.7z M12.5,59.7C12.5,59.7,12.5,59.7,12.5,59.7l0.4,0 M12.5,59.7L12.5,59.7l0.4,0 M75.5,23.4L75.5,23.4
			c0.7,0.4,1.3,0.9,1.7,1.6c0.4,0.7,0.6,1.4,0.6,2.2v32.5c0,0.8-0.2,1.5-0.6,2.2c-0.4,0.7-1,1.2-1.7,1.6l0,0L45.6,79.9l0,0
			c-0.6,0.4-1.4,0.5-2.1,0.5s-1.5-0.2-2.1-0.5l0,0L11.5,63.6l0,0c-0.7-0.4-1.3-0.9-1.7-1.6c-0.4-0.7-0.6-1.4-0.6-2.2V27.2
			c0-0.8,0.2-1.5,0.6-2.2c0.4-0.7,1-1.2,1.7-1.6h0L41.4,7.1l0,0c0.6-0.4,1.4-0.5,2.1-0.5s1.5,0.2,2.1,0.5l0,0L75.5,23.4z M43,9.9
			L43,9.9l-11.2,6.1l-0.6,0.4l0.6,0.4l28.7,15.7l0.2,0.1l0.2-0.1l11.5-6.3l0.6-0.4l-0.6-0.4L44,9.9v0c-0.2-0.1-0.3-0.1-0.5-0.1
			S43.1,9.8,43,9.9z M14.6,25.5l-0.6,0.4l0.6,0.4l28.7,15.7l0.2,0.1l0.2-0.1l12.9-7.1l0.6-0.4l-0.6-0.4l-14.4-7.9l-14.4-7.9
			l-0.2-0.1l-0.2,0.1L14.6,25.5z M73.9,60.7L73.9,60.7l0.1-0.9h0.4v0V29.5v-0.7l-0.6,0.3l-12.2,6.7l-0.2,0.1v0.2v15.5
			c0,0.4-0.2,0.9-0.5,1.2s-0.7,0.5-1.2,0.5s-0.9-0.2-1.2-0.5s-0.5-0.7-0.5-1.2V38.4v-0.7L57.6,38l-12.2,6.7l-0.2,0.1v0.2v30.7v0.7
			l0.6-0.3L73.9,60.7z"/>
		<path class="st2" d="M33.3,48.5l-8.2-4.4c-0.2-0.1-0.4-0.2-0.6-0.2s-0.4,0.1-0.6,0.2l-8.2,4.4c-0.2,0.1-0.4,0.3-0.5,0.5
			c-0.1,0.2-0.2,0.4-0.2,0.6v8.7c0,0.2,0.1,0.5,0.2,0.6c0.1,0.2,0.3,0.4,0.5,0.5l8.2,4.4c0.2,0.1,0.4,0.2,0.6,0.2s0.4-0.1,0.6-0.2
			l8.2-4.4c0.2-0.1,0.4-0.3,0.5-0.5c0.1-0.2,0.2-0.4,0.2-0.6v-8.7c0-0.2-0.1-0.5-0.2-0.6C33.7,48.8,33.5,48.6,33.3,48.5z M24.4,45.1
			C24.4,45.1,24.5,45.1,24.4,45.1c0.1,0,0.2,0,0.2,0l7.8,4.2L29.2,51l-7.9-4.2L24.4,45.1z M23.9,62.6l-7.7-4.1c0,0-0.1,0-0.1-0.1
			c0,0,0-0.1,0-0.1v-8.1l7.8,4.2V62.6z M16.6,49.3l3.5-1.9l3.9,2.1l3.9,2.1l-3.5,1.9L16.6,49.3z M32.9,58.3
			C32.9,58.4,32.9,58.4,32.9,58.3c0,0.1-0.1,0.1-0.1,0.2l-7.7,4.1v-8.2l3.4-1.8v3.6c0,0.1,0.1,0.3,0.2,0.4c0.1,0.1,0.2,0.2,0.4,0.2
			c0.1,0,0.3-0.1,0.4-0.2c0.1-0.1,0.2-0.2,0.2-0.4V52l3.4-1.8V58.3z"/>
		<path class="st3" d="M49.5,74.5V78H36.4v-3.5H49.5z M44.8,68.2v16.6h-3.5V68.2H44.8z"/>
		<path class="st4" d="M49.5,74.5h3v-3h-3V74.5z M49.5,78v3h3v-3H49.5z M36.4,78h-3v3h3V78z M36.4,74.5v-3h-3v3H36.4z M44.8,68.2h3
			v-3h-3V68.2z M44.8,84.7v3h3v-3H44.8z M41.2,84.7h-3v3h3V84.7z M41.2,68.2v-3h-3v3H41.2z M46.5,74.5V78h6v-3.5H46.5z M49.5,75
			H36.4v6h13.1V75z M39.4,78v-3.5h-6V78H39.4z M36.4,77.5h13.1v-6H36.4V77.5z M41.8,68.2v16.6h6V68.2H41.8z M44.8,81.7h-3.5v6h3.5
			V81.7z M44.2,84.7V68.2h-6v16.6H44.2z M41.2,71.2h3.5v-6h-3.5V71.2z"/>
	</g>
</g>
</svg>
